X:1
T:Hodie nobis coelorum Rex - Nanino
T:#
%%score [ 1 { 2 | 3 } 4 ]
L:1/8
Q:1/4=100
M:4/4
K:C
V:1 treble nm="Soprano" snm="S"
V:2 treble nm="Alto I" snm="A"
V:3 treble 
V:4 treble-8 nm="Tenor" snm="T"
V:1
"^Hodie nobis coelorum Rex""^Bernardino Nanino\n(1560-1623)" c6 B2 | B4 c4 | d2 e2 f4- | f2 f2 e4 | %4
w: Ho- di-|e no-|bis coe- lo\-|* rum Rex|
 c2 d3 d d2 |[M:4/4] c4 B2 c2 | (dc c4) B2 | c4 c4- | c4 d4- | d2 d2 d4 | c6 c2 | c2 c2 c2 c2- | %12
w: de Vir- gi- ne|na- sci di-|gna\- * * tus|est, ut|* ho\-|* mi- nem|per- di-|tum ad coe- le\-|
 cc c2 f4 | e4 z2 c2- | c2 G2 (A_B cA) | (=B3 A Bc d2- | dc c4 B2) | c8 ||[M:3/4] e2 g2 f2 | %19
w: * sti- a re-|gna re\-|* vo- ca\- * * *|||ret.|Gau- det ex-|
 e3 e e2 |[M:3/4] d4 e2 | f6 ||[M:4/4] e4 z2 e2- | e2 e2 f4 | d2 d4 ^c2 |[M:4/4] d2 d2 d2 d2 | %26
w: er- ci- tus|An- ge-|lo-|rum, qui\-|* a sa-|lus ae- ter-|na hu- ma- no|
[Q:1/4=98] e3[Q:1/4=96] e[Q:1/4=95] c2[Q:1/4=94] f2- | %27
w: ge- ne- ri ap\-|
[Q:1/4=92] f2[Q:1/4=90] (d3[Q:1/4=88] c[Q:1/4=87] c2- | %28
w: * pa\- * *|
[Q:1/4=86] c2)[Q:1/4=84] B2[Q:1/4=84] !fermata!c4 |] %29
w: * ru- it.|
V:2
 G6 G2 | G4 G4 | _B2 B2 c4- | c2 c2 c4 | c2 _B3 B B2 |[M:4/4] G4 G2 G2 | A4 G4 | G4 A4- | A4 _B4- | %9
w: Ho- di-|e no-|bis coe- lo\-|* rum Rex|de Vir- gi- ne|na- sci di-|gna- tus|est, ut|* ho\-|
 B2 _B2 B4 | (A2 GF G2) G2 | A2 A2 G2 A2- | AA G2 (A2 B2) | c4 G4 | G2 G3 ^F F2 | G2 D2 G2 A2 | %16
w: * mi- nem|per\- * * * di-|tum ad coe- le\-|* sti- a re\- *|gna, ad|coe- le- sti- a|re- gna re- vo-|
 G8 | G8 ||[M:3/4] c2 c2 A2 | c3 c c2 |[M:3/4] B4 c2 | c6 ||[M:4/4] c4 z2 c2- | c2 c2 A4 | %24
w: ca-|ret.|Gau- det ex-|er- ci- tus|An- ge-|lo-|rum, qui\-|* a sa-|
 _B2 B2 A4 |[M:4/4] A2 B2 B2 B2 | c6 c2 | (_B3 A G2) G2 | G3 G !fermata!G4 |] %29
w: lus ae- ter-|na hu- ma- no|ge- ne-|ri * * ap-|pa- ru- it.|
V:3
 E6 D2 | D4 E4 | F2 G2 A4- | A2 A2 G2 E2 | F4 F2 F2 |[M:4/4] E4 D2 E2 | F4 D4 | E4 z2 C2- | %8
w: Ho- di-|e no-|bis coe- lo\-|* rum Rex de|Vir- gi- ne|na- sci di-|gna- tus|est, ut|
 C2 F4 F2 | (F3 E F2) G2- | (GF F4) E2 | F2 F2 E2 F2- | FF E2 D4 | C2 E2 D2 E2- | EE D2 C2 C2 | %15
w: * ho- mi-|nem * * per\-|* * * di-|tum ad coe- le\-|* sti- a re-|gna, ad coe- le\-|* sti- a re- gna|
 D6 F2 | (E4 D4) | E8 ||[M:3/4] G2 E2 F2 | G3 G G2 |[M:3/4] G4 G2 | A6 ||[M:4/4] G4 G4 | %23
w: re- vo-|ca\- *|ret.|Gau- det ex-|er- ci- tus|An- ge-|lo-|rum, qui-|
 G2 A4 F2- | F2 G2 E4 |[M:4/4] D4 z2 G2 | G2 G2 A3 A | D2 F2 (E3 D/C/ | D3) D !fermata!C4 |] %29
w: a sa- lus|* ae- ter-|na hu-|ma- no ge- ne-|ri ap- pa\- * *|* ru- it.|
V:4
 c6 G2 | G4 c4 | _B2 G2 F4- | F2 F2 c4 | A2 _B3 B B2 |[M:4/4][K:treble-8] c4 G2 c2 | F4 G4 | %7
w: Ho- di-|e no-|bis coe- lo\-|* rum Rex|de Vir- gi- ne|na- sci di-|gna- tus|
 C4 F4- | F4 _B4- | B2 _B2 B4 | c6 c2 | F4 z4 | z8 | z2 c2 B2 c2- | cc _B2 A4 | G2 G4 D2 | %16
w: est, ut|* ho\-|* mi- nem|per- di-|tum||ad coe- le\-|* sti- a re-|gna re- vo-|
 (E3 F G4) | C8 ||[M:3/4] c2 c2 d2 | c3 c c2 |[M:3/4][K:treble-8] G4 c2 | (F3 G AB) || %22
w: ca\- * *|ret.|Gau- det ex-|er- ci- tus|An- ge-|lo\- * * *|
[M:4/4] c4 z2 c2- | c2 c2 d4 | _B2 G2 A4 |[M:4/4][K:treble-8] ^F2 G2 G2 G2 | c3 c F4 | %27
w: rum, qui\-|* a sa-|lus ae- ter-|na hu- ma- no|ge- ne- ri|
 _B4 (c3 =B/A/ | G3) G !fermata!C4 |] %29
w: ap- pa\- * *|* ru- it.|

